src/images/badges/merged-pr-100.svg

<svg width="80" height="20" viewBox="0 0 80 20" fill="none" xmlns="http://www.w3.org/2000/svg">
<path d="M79 10C79 5.02944 74.9706 1 70 1L10 1C5.02944 1 1 5.02944 1 10C1 14.9706 5.02944 19 10 19H70C74.9706 19 79 14.9706 79 10Z" fill="#FF8630"/>
<path d="M72.8352 2.95178C72.5479 2.95178 72.3651 3.13464 72.3651 3.39585C72.3651 3.52646 72.4695 3.6832 72.6001 3.76156L74.1936 5.1199C74.2981 5.22439 74.3764 5.25051 74.4809 5.25051C74.6115 5.25051 74.7421 5.1199 74.7421 4.98929C74.7421 4.8848 74.6899 4.78032 74.5854 4.67583L73.2271 3.16076C73.1226 3.03015 72.9659 2.95178 72.8352 2.95178Z" fill="black"/>
<path d="M73.3054 5.74683C72.9136 5.74683 72.5218 5.98192 72.5218 6.45212C72.5218 6.92231 72.9136 7.15741 73.3054 7.15741C73.6973 7.15741 74.0891 6.89619 74.0891 6.45212C74.0891 6.00804 73.6973 5.74683 73.3054 5.74683Z" fill="black"/>
<path d="M75.7087 5.74683C75.3168 5.74683 74.925 5.98192 74.925 6.45212C74.925 6.92231 75.3168 7.15741 75.7087 7.15741C76.1005 7.15741 76.4923 6.89619 76.4923 6.45212C76.4923 6.00804 76.1005 5.74683 75.7087 5.74683Z" fill="black"/>
<path d="M46.5305 4.83251C46.2431 4.72802 45.7991 4.64966 45.3289 4.64966C43.8922 4.64966 43.1085 5.5378 43.1085 7.36634V13.7401C43.1085 15.1245 42.6383 15.6992 41.6979 15.6992C41.4367 15.6992 41.2016 15.647 40.8881 15.5686L40.8424 15.5569C40.7358 15.5295 40.5834 15.4902 40.4702 15.4902C40.2351 15.4902 40.0784 15.6209 40.0784 15.856C40.0784 16.0911 40.2351 16.2217 40.4702 16.3C40.7575 16.4045 41.2016 16.4829 41.6718 16.4829C43.1085 16.4829 43.8922 15.6209 43.8922 13.7923V7.39246C43.8922 6.008 44.3624 5.43332 45.3027 5.43332C45.564 5.43332 45.7991 5.48556 46.1125 5.56392L46.1578 5.57549C46.2645 5.60297 46.4172 5.64229 46.5305 5.64229C46.7656 5.64229 46.9223 5.51168 46.9223 5.27658C46.9223 5.04149 46.7656 4.91088 46.5305 4.83251Z" fill="black"/>
<path d="M5.15338 6.13865V10.8406C5.15338 12.6691 6.0154 13.7924 7.76557 13.8185C9.54186 13.8185 10.4039 12.6952 10.4039 10.8406V6.13865C10.4039 5.82519 10.2472 5.66846 9.98593 5.66846C9.72471 5.66846 9.56798 5.85131 9.56798 6.13865V10.8406C9.56798 12.4079 8.88881 13.0348 7.76557 13.0348C6.66845 13.0348 5.98928 12.4079 5.98928 10.8406V6.13865C5.98928 5.82519 5.80643 5.66846 5.57133 5.66846C5.31011 5.66846 5.15338 5.85131 5.15338 6.13865Z" fill="black"/>
<path fill-rule="evenodd" clip-rule="evenodd" d="M12.1018 13.0871C12.1018 13.27 12.2063 13.4267 12.3891 13.4267C12.5041 13.4267 12.6392 13.366 12.8302 13.2803L12.9116 13.2438L14.5834 12.3818L16.2029 13.2177C16.438 13.3483 16.5948 13.4267 16.7254 13.4267C16.9082 13.4267 17.0127 13.27 17.0127 13.0871C17.0127 13.0005 16.9948 12.896 16.9738 12.7736L16.647 10.8406L17.9792 9.53452C18.2405 9.29942 18.3449 9.14269 18.3449 9.01208C18.3449 8.72474 17.9531 8.6725 17.6919 8.64638L15.8372 8.38516L15.0275 6.71336C14.8446 6.34765 14.7401 6.19092 14.5573 6.19092C14.3744 6.19092 14.2699 6.34765 14.0871 6.71336L13.2773 8.38516L11.4226 8.64638C11.1614 8.6725 10.7696 8.72474 10.7696 9.01208C10.7696 9.14269 10.9002 9.29942 11.1353 9.53452L12.4675 10.8406L12.1541 12.6953L12.141 12.7724C12.1198 12.8953 12.1018 13.0002 12.1018 13.0871ZM17.3262 9.24718L15.8895 10.5794L16.2813 12.4602L14.5834 11.5459L12.8855 12.4602L13.2773 10.5794L11.8406 9.24718L13.7736 9.01208L14.5834 7.26192L15.3932 9.01208L17.3262 9.24718Z" fill="black"/>
<path d="M18.9196 13.5573C18.9196 13.3744 19.0763 13.1916 19.2853 13.1916C19.3245 13.1916 19.3833 13.1981 19.4421 13.2046C19.5008 13.2112 19.5596 13.2177 19.5988 13.2177C20.0429 13.2177 20.5392 12.643 20.8265 12.2512C20.2518 11.6242 19.5988 10.8145 19.5988 9.95244C19.5988 8.93368 20.3824 8.20227 21.4534 8.20227C22.5244 8.20227 23.3081 8.93368 23.3081 9.95244C23.3081 10.8406 22.6812 11.6242 22.0804 12.2512C22.3677 12.6691 22.8901 13.2177 23.3081 13.2177C23.3641 13.2177 23.4276 13.2102 23.4865 13.2032C23.5376 13.1972 23.5852 13.1916 23.6216 13.1916C23.8305 13.1916 23.9873 13.3744 23.9873 13.5573C23.9873 13.8707 23.6999 13.9752 23.3603 13.9752C22.4461 13.9752 21.8975 13.4005 21.4534 12.7997C21.0094 13.4005 20.4608 13.9752 19.5465 13.9752C19.207 13.9752 18.9196 13.8707 18.9196 13.5573Z" fill="black"/>
<path fill-rule="evenodd" clip-rule="evenodd" d="M25.7897 13.0871C25.7897 13.27 25.8942 13.4267 26.077 13.4267C26.192 13.4267 26.3272 13.366 26.5183 13.2801L26.5995 13.2438L28.219 12.3557L29.8908 13.2177C30.1259 13.3483 30.2826 13.4267 30.4133 13.4267C30.5961 13.4267 30.7006 13.27 30.7006 13.0871C30.7006 13.0002 30.6826 12.8953 30.6614 12.7724L30.6483 12.6953L30.3349 10.8406L31.6671 9.53452C31.9283 9.29942 32.0328 9.14269 32.0328 9.01208C32.0328 8.72474 31.6671 8.6725 31.3798 8.64638L29.5251 8.38516L28.7153 6.71336C28.5325 6.34765 28.428 6.19092 28.2451 6.19092C28.0623 6.19092 27.9578 6.34765 27.7749 6.71336L26.9652 8.38516L25.1105 8.64638C24.8493 8.6725 24.4575 8.72474 24.4575 9.01208C24.4575 9.14269 24.5619 9.29942 24.8232 9.53452L26.1554 10.8406L25.8286 12.7736C25.8076 12.896 25.7897 13.0005 25.7897 13.0871ZM31.0141 9.24718L29.5774 10.5794L29.9692 12.4602L28.2713 11.5459L26.5733 12.4602L26.9652 10.5794L25.5285 9.24718L27.4615 9.01208L28.2713 7.26192L29.081 9.01208L31.0141 9.24718Z" fill="black"/>
<path d="M32.5291 10.8406V6.13865C32.5291 5.85131 32.6859 5.66846 32.9471 5.66846C33.1822 5.66846 33.365 5.82519 33.365 6.13865V10.8406C33.365 12.4079 34.0442 13.0348 35.1413 13.0348C36.2646 13.0348 36.9437 12.4079 36.9437 10.8406V6.13865C36.9437 5.85131 37.1005 5.66846 37.3617 5.66846C37.6229 5.66846 37.7796 5.82519 37.7796 6.13865V10.8406C37.7796 12.6952 36.9176 13.8185 35.1413 13.8185C33.3912 13.7924 32.5291 12.6691 32.5291 10.8406Z" fill="black"/>
<path d="M48.568 10.501C48.568 10.2397 48.7508 10.1091 48.9859 10.1091H54.5238C54.7589 10.1091 54.9417 10.2397 54.9417 10.4748C54.9417 10.7099 54.7328 10.8667 54.5238 10.8667H48.9859C48.7508 10.8667 48.568 10.7361 48.568 10.501Z" fill="black"/>
<path fill-rule="evenodd" clip-rule="evenodd" d="M63.4836 10.5794C63.4836 11.5198 63.8754 12.1467 64.5023 12.1467C65.1292 12.1467 65.5211 11.5198 65.5211 10.5794C65.5211 9.63898 65.1292 9.01206 64.5023 9.01206C63.8754 9.01206 63.4836 9.61286 63.4836 10.5794ZM64.5023 10.9973C64.762 10.9973 64.9725 10.7985 64.9725 10.5532C64.9725 10.3079 64.762 10.1091 64.5023 10.1091C64.2426 10.1091 64.0321 10.3079 64.0321 10.5532C64.0321 10.7985 64.2426 10.9973 64.5023 10.9973Z" fill="black"/>
<path fill-rule="evenodd" clip-rule="evenodd" d="M68.4467 12.1467C67.8198 12.1467 67.428 11.5198 67.428 10.5794C67.428 9.61286 67.8198 9.01206 68.4467 9.01206C69.0737 9.01206 69.4655 9.63898 69.4655 10.5794C69.4916 11.5198 69.0737 12.1467 68.4467 12.1467ZM68.9169 10.5532C68.9169 10.7985 68.7064 10.9973 68.4467 10.9973C68.187 10.9973 67.9765 10.7985 67.9765 10.5532C67.9765 10.3079 68.187 10.1091 68.4467 10.1091C68.7064 10.1091 68.9169 10.3079 68.9169 10.5532Z" fill="black"/>
<path fill-rule="evenodd" clip-rule="evenodd" d="M68.5774 6.45215H60.6102C58.2853 6.47827 56.5352 8.22844 56.5352 10.5794C56.5352 12.8259 58.1547 14.5499 60.349 14.6805V14.7067H68.3945C70.7455 14.7067 72.5218 12.9304 72.5218 10.5794C72.5479 8.28068 70.85 6.53051 68.5774 6.45215ZM61.571 12.054C61.7047 12.0479 61.8306 12.0422 61.9163 12.0422C62.1252 12.0422 62.2558 12.1467 62.2558 12.3295C62.2558 12.5124 62.1252 12.643 61.9163 12.643H59.3302C59.1212 12.643 58.9906 12.5124 58.9906 12.3295C58.9906 12.1467 59.1212 12.0161 59.3302 12.0161C59.4393 12.0161 59.6047 12.0217 59.7819 12.0277C59.9866 12.0347 60.2071 12.0422 60.3751 12.0422H60.4534V9.14267L59.5653 9.63898C59.4347 9.69123 59.3563 9.71735 59.2779 9.71735C59.1212 9.71735 58.9906 9.58674 58.9906 9.40389C58.9906 9.27328 59.069 9.16879 59.2257 9.09042L60.4534 8.48962C60.5318 8.43738 60.6624 8.38513 60.793 8.38513C60.9759 8.38513 61.0804 8.51574 61.0804 8.72472V12.0683H61.1326C61.2575 12.0683 61.4193 12.0609 61.571 12.054ZM62.8305 10.5533C62.8305 9.24716 63.4836 8.38513 64.5023 8.38513C65.5211 8.38513 66.1741 9.24716 66.1741 10.5533C66.1741 11.8855 65.5211 12.7475 64.5023 12.7475C63.4836 12.7475 62.8305 11.8855 62.8305 10.5533ZM68.4467 8.38513C67.428 8.38513 66.7749 9.24716 66.7749 10.5533C66.7749 11.8855 67.428 12.7475 68.4467 12.7475C69.4655 12.7475 70.1185 11.8855 70.1185 10.5533C70.1185 9.24716 69.4655 8.38513 68.4467 8.38513Z" fill="black"/>
</svg>

<svg xmlns="http://www.w3.org/2000/svg" width="80" height="20" fill="none"><path fill="#FF8630" d="M79 10a9 9 0 0 0-9-9H10a9 9 0 0 0 0 18h60a9 9 0 0 0 9-9Z"/><path fill="#000" d="M72.835 2.952c-.287 0-.47.183-.47.444 0 .13.105.287.235.366l1.594 1.358c.104.104.182.13.287.13a.28.28 0 0 0 .261-.26c0-.105-.052-.21-.157-.314L73.227 3.16a.537.537 0 0 0-.392-.21ZM73.305 5.747c-.391 0-.783.235-.783.705s.392.705.783.705c.392 0 .784-.26.784-.705 0-.444-.392-.705-.784-.705ZM75.709 5.747c-.392 0-.784.235-.784.705s.392.705.784.705c.391 0 .783-.26.783-.705 0-.444-.392-.705-.783-.705ZM46.53 4.833c-.287-.105-.73-.183-1.201-.183-1.437 0-2.22.888-2.22 2.716v6.374c0 1.384-.47 1.96-1.411 1.96-.261 0-.496-.053-.81-.131l-.046-.012c-.106-.027-.259-.067-.372-.067-.235 0-.392.13-.392.366 0 .235.157.366.392.444.288.104.732.183 1.202.183 1.437 0 2.22-.862 2.22-2.69v-6.4c0-1.385.47-1.96 1.41-1.96.262 0 .497.053.81.13l.046.012a1.7 1.7 0 0 0 .373.067c.235 0 .391-.13.391-.365 0-.236-.156-.366-.391-.444ZM5.153 6.139v4.702c0 1.828.862 2.951 2.613 2.978 1.776 0 2.638-1.124 2.638-2.978V6.139c0-.314-.157-.47-.418-.47s-.418.182-.418.47v4.702c0 1.567-.68 2.194-1.802 2.194-1.098 0-1.777-.627-1.777-2.194V6.139c0-.314-.183-.47-.418-.47-.26 0-.418.182-.418.47Z"/><path fill="#000" fill-rule="evenodd" d="M12.102 13.087c0 .183.104.34.287.34.115 0 .25-.061.441-.147l.082-.036 1.671-.862 1.62.836c.235.13.392.209.522.209.183 0 .288-.157.288-.34 0-.086-.018-.191-.04-.313l-.326-1.933 1.332-1.306c.262-.236.366-.392.366-.523 0-.287-.392-.34-.653-.366l-1.855-.26-.81-1.673c-.182-.365-.287-.522-.47-.522s-.287.157-.47.522l-.81 1.672-1.854.261c-.262.026-.653.079-.653.366 0 .13.13.287.365.523l1.332 1.306-.313 1.854-.013.077c-.021.123-.04.228-.04.315Zm5.224-3.84L15.89 10.58l.392 1.881-1.698-.914-1.697.914.391-1.88-1.436-1.333 1.933-.235.81-1.75.81 1.75 1.932.235Z" clip-rule="evenodd"/><path fill="#000" d="M18.92 13.557c0-.183.156-.365.365-.365.04 0 .098.006.157.013.059.006.118.013.157.013.444 0 .94-.575 1.227-.967-.574-.627-1.227-1.436-1.227-2.299 0-1.018.783-1.75 1.854-1.75 1.071 0 1.855.732 1.855 1.75 0 .889-.627 1.672-1.228 2.3.288.417.81.966 1.228.966.056 0 .12-.008.178-.015.052-.006.1-.011.136-.011.209 0 .365.182.365.365 0 .314-.287.418-.627.418-.914 0-1.462-.575-1.907-1.175-.444.6-.992 1.175-1.906 1.175-.34 0-.627-.104-.627-.418Z"/><path fill="#000" fill-rule="evenodd" d="M25.79 13.087c0 .183.104.34.287.34.115 0 .25-.061.441-.147l.081-.036 1.62-.888 1.672.862c.235.13.392.209.522.209.183 0 .288-.157.288-.34 0-.087-.018-.192-.04-.315l-.013-.077-.313-1.854 1.332-1.306c.261-.236.366-.392.366-.523 0-.287-.366-.34-.653-.366l-1.855-.26-.81-1.673c-.183-.365-.287-.522-.47-.522s-.287.157-.47.522l-.81 1.672-1.855.261c-.26.026-.652.079-.652.366 0 .13.104.287.365.523l1.332 1.306-.326 1.933a2.011 2.011 0 0 0-.04.313Zm5.224-3.84-1.437 1.332.392 1.881-1.698-.914-1.698.914.392-1.88-1.436-1.333 1.933-.235.81-1.75.809 1.75 1.933.235Z" clip-rule="evenodd"/><path fill="#000" d="M32.53 10.84V6.14c0-.288.156-.47.417-.47.235 0 .418.156.418.47v4.702c0 1.567.68 2.194 1.776 2.194 1.124 0 1.803-.627 1.803-2.194V6.139c0-.288.156-.47.418-.47.26 0 .418.156.418.47v4.702c0 1.854-.862 2.978-2.639 2.978-1.75-.027-2.612-1.15-2.612-2.978ZM48.568 10.501c0-.261.183-.392.418-.392h5.538c.235 0 .418.13.418.366 0 .235-.21.392-.418.392h-5.538c-.235 0-.418-.13-.418-.366Z"/><path fill="#000" fill-rule="evenodd" d="M63.484 10.58c0 .94.391 1.567 1.018 1.567s1.02-.627 1.02-1.568c0-.94-.393-1.567-1.02-1.567s-1.018.6-1.018 1.567Zm1.018.417c.26 0 .47-.198.47-.444a.458.458 0 0 0-.47-.444c-.26 0-.47.199-.47.444s.21.444.47.444ZM68.447 12.147c-.627 0-1.019-.627-1.019-1.568 0-.966.392-1.567 1.019-1.567.627 0 1.019.627 1.019 1.567.026.94-.392 1.568-1.02 1.568Zm.47-1.594c0 .245-.21.444-.47.444a.458.458 0 0 1-.47-.444c0-.245.21-.444.47-.444s.47.199.47.444Z" clip-rule="evenodd"/><path fill="#000" fill-rule="evenodd" d="M68.577 6.452H60.61c-2.325.026-4.075 1.776-4.075 4.127 0 2.247 1.62 3.97 3.814 4.101v.027h8.045c2.352 0 4.128-1.777 4.128-4.128.026-2.298-1.672-4.048-3.945-4.127Zm-7.006 5.602a8.83 8.83 0 0 1 .345-.012c.21 0 .34.105.34.287 0 .183-.13.314-.34.314H59.33c-.209 0-.34-.13-.34-.314 0-.182.131-.313.34-.313.11 0 .275.006.452.012.205.007.425.014.593.014h.078v-2.9l-.888.497c-.13.052-.209.078-.287.078-.157 0-.287-.13-.287-.313 0-.13.078-.235.235-.314l1.227-.6a.654.654 0 0 1 .34-.105c.183 0 .287.13.287.34v3.343h.053c.124 0 .286-.007.438-.014Zm1.26-1.5c0-1.307.653-2.169 1.671-2.169 1.02 0 1.672.862 1.672 2.168 0 1.332-.653 2.194-1.672 2.194-1.018 0-1.671-.861-1.671-2.194Zm5.616-2.169c-1.019 0-1.672.862-1.672 2.168 0 1.332.653 2.194 1.672 2.194s1.671-.861 1.671-2.194c0-1.306-.652-2.168-1.671-2.168Z" clip-rule="evenodd"/></svg>
